X: 10702
M: 6/8
L: 1/8
K: D
u(A/G/) !segno!|\
vd/ue/ |\
f>df agf | eBc d2d/e/ | f>gf ede | fdB B2d/e/ |\
f>df agf | eBc d2d/e/ | f>gf ede | f<dB B>AG !segno!"_D.C."|]


